X: 1
T: la Bagatelle   (C)
O: London Magazine, 1771
S: printed page from Darlene Wigton 2015-10-7
F: https://books.google.com/books?id=8SsoAAAAYAAJ&pg=PA333&lpg=PA333
B: The London Magazine, Or, Gentleman's Monthly Intelligencer, v.40, p.323, June 1771
R: reel
Z: 2015 John Chambers <jc:trillian.mit.edu>
M: 2/4
L: 1/16
K: C
% - - - - - - - - - - - - - - - - - - - - - - - - -
"C"c2c2 |\
G2G2 "C"c2c2 | E4 "Dm"FGAF | "G7"DEFD B,2C2 | "G7"D2G,2 "C"c2c2 |\
G2G2 "C"c2c2 | E4 GABc | "G"dcBc "D7"TA4 | "G"G4 |]
|: d2d2 |\
"G7"G2G2 F2F2 | "C"E4 "F"FGAB | "/a"c2fe "Dm"d2c2 | "G7"d4 "C"E2E2 |\
"F"F2F2 "G"G2G2 | "F"A2A2 "G"B2B2 | "C"c2BA "G7"GFED | "C"C4 :|
% - - - - - - - - - - Dance description - - - - - - - - - -
% %text All round
% %begintext align
% % I. The first and third couple contre tems to the left before
% %    the second and fourth couple, who makes rigadoon step.
% %endtext
% %begintext align
% % II. The first and third couple contre tems forward between
% % the other two couple and face the wall,
% % the gentlemen take the ladies left hands and return to their own places,
% % turning the ladies before them;
% % mean time the second and fourth contre tems to the centre,
% % make a cross to the left,
% % and return to their places.
% %endtext
% %begintext align
% % III. and IV. The contre party does the same figure.
% %endtext
% - - - - - - - - - - - - - - - - - - - - - - - - -
